!!!!SEGMENT: pl-wnifc--6439-n--007_anonim--mazur-no-7.krn
!!!cenid: 18xx:3950
!!!COM: Anonim
!!!COM-rismID: pe30004985
!!!CDT:
!!!CNT:
!!!OTL: [Mazur] No. 7
!!!PDT: 1827
!!!AGN:
!!!SMS-siglum: PL-Wnifc
!!!SMS-shelfmark: 6439/n
!!!SMS-shelfwork: 007 W
!!!SMS-variant:
!!!SMS-altvar:
!!!NIFC-rismSourceID: 1001011237
!!!NIFC-islandoraID: nifc:212734
!!!URL-pdf-islandora: https://repozytorium.nifc.pl/islandora/object/nifc:212734/datastream/PDF/view
!!!URL-scan: https://polish.musicsources.pl/pl/lokalizacje/galeria/druki-muzyczne/16857 @EN{Scan on Polish Music Sources Website} @PL{Skany w portalu Dziedzictwo Muzyki Polskiej w otwartym dostępie}
!!!ONB-nifc: str. 6 (skan 0004)
!!!AIN: 2 piano
!!!key: D
**kern	**kern
*part2	*part1
*staff2	*staff1
*I"Pianoforte	*I"Pianoforte
*I'Pf	*I'Pf
*Ipiano	*Ipiano
*ICklav	*ICklav
*clefF4	*clefG2
*k[f#c#]	*k[f#c#]
*D:	*D:
*M3/8	*M3/8
=1	=1
!	!LO:TX:a:Bi:t=No 7.
8D\L 8d	16.a\LL 16.dd 16.ff#
.	32aa\JJk
8A\ 8d 8f#	8.ddd\L
8A\J 8d 8f#	.
.	16ff#\Jk
=2	=2
8D\L 8d	16aa\LL
.	16dd\
8A\ 8d 8f#	16ff#\
.	16a\
8A\J 8d 8f#	16dd\
.	16f#\JJ
=3	=3
8AA\ 8A	16.g/LL
.	32e/JJk
8A\L 8c# 8e	(32aa\LLL
.	32gg\
.	32ff#\
.	32gg\JJJ)
8A\J 8c# 8e	16ee\LL
.	16ccc#\JJ
=4	=4
8AA\ 8A	16eee\LL
.	(16aa\
8A\L 8e 8g	16ccc#\)
.	(16gg\
8A\J 8e 8g	16bb\)
.	16aa\JJ
=5	=5
8D\L 8d	16ff#\LL
.	16gg\
8A\ 8d 8f#	16aa\
.	16bb\
8A\J 8d 8f#	16ccc#\
.	16ddd\JJ
=6	=6
8GG\ 8G	8ccc#\L
8G\L 8B 8e	8ee\J
.	8qccc#/
8G\J 8B 8e	(16bb\LL
.	16aa\JJ)
=7	=7
8AA\ 8A	(16gg\LL
.	16ff#\)
8A\L 8e 8g	(16aa\
.	16gg\JJ)
8A\J 8e 8g	16b'/LL
.	16cc#'/JJ
=8	=8
8d\ 8f#	(16ee\LL
.	16dd\JJ)
4D\ 4d	4dd'\
=9:|!|:	=9:|!|:
8FF#\ 8F#	8ff#/L
8F#\L 8A#X 8c# 8e	16f#/L
.	16a#X/
8F#\J 8A# 8c# 8e	16b/
.	16ff#/JJ
!LO:LB:g=original	!LO:LB:g=original
=10	=10
!	!LO:TUP:a
8FF#/ 8F#	(24aa#X\LL
.	24gg#X\
.	24ff#\JJ)
!	!LO:TUP:a
8F#\L 8A#X 8c# 8e	(24ccc#\LL
.	24bb\
.	24aa#\JJ)
8F#\J 8A# 8c# 8e	16.eee\LL
.	32aa#\JJk
=11	=11
8BB\L 8B	16bb\LL
.	16ddd\
8F#\ 8B 8d	16ff#\
.	16bb\
8F#\J 8B 8d	16dd\
.	16ff#\JJ
=12	=12
!	!LO:TUP:a
8BB\L 8B	(24b\LL
.	24cc#\
.	24dd\JJ)
8F#\ 8B 8d	8.f#/L
8F#\J 8B 8d	.
.	16f#/Jk
=13	=13
8AA\ 8A	16g/LL
.	16e/JJ
8A\L 8e 8g	16gg\LL
.	16ff#\
8A\J 8e 8g	16ee\
.	16aa\JJ
=14	=14
8AA\ 8A	16ccc#\LL
.	16bb\
8A\L 8e 8g	16aa\
.	16gg\
8A\J 8e 8g	16ff#\
.	16ee\JJ
=15	=15
8AA\ 8A	16dd\LL
.	16cc#\
8A\L 8e 8g	16bb\
.	16aa\
8A\J 8e 8g	16cc#\
.	16ee\JJ
=16	=16
8d\ 8f#	16gg\LL
.	16ff#\JJ
4D\ 4d	4dd\
=17:|!|:	=17:|!|:
*k[f#]	*k[f#]
*G:	*G:
8GG/ 8G	16ff#\LL
.	16gg\
8G\L 8B 8d	16dd\
.	16bb\
8G\J 8B 8d	16aa\
.	16gg\JJ
=18	=18
8DD/ 8D	(32gg#X\LLL
.	32aa\
.	32bb\
.	32aa\JJJ)
8D\L 8A 8c	8.a\L 8.ff#
8D\J 8A 8c	.
.	16dd\Jk
=19	=19
8DD/ 8D	16gg#X\LL
.	16aa\
8D\L 8A 8c	16dd\
.	16ccc\
8D\J 8A 8c	16bb\
.	16aa\JJ
!LO:LB:g=original	!LO:LB:g=original
=20	=20
8GG/ 8G	(32ccc\LLL
.	32bb\
.	32aa#X\
.	32bb\JJJ)
8G\L 8B 8d	16gg\LL
.	16dd\
8G\J 8B 8d	16ee\
.	16ff#\JJ
=21	=21
8GG\ 8G	16ff#\LL
.	16gg\
8G\L 8B 8d	16dd\
.	16bb\
8G\J 8B 8d	16ff#\
.	16gg\JJ
=22	=22
8CC/ 8C	16gg#X\LL
.	16aa\
8C\L 8E 8A	16bb\
.	16ccc\
8C\J 8E 8A	16ee\
.	16aa\JJ
=23	=23
8DD/ 8D	16gg\LL
.	16ff#\
8D\L 8A 8c	16ee\
.	16ccc\
8D\J 8A 8c	16dd\
.	16ff#\JJ
=24	=24
8G\ 8B	16aa\LL
.	16gg\JJ
4GG/ 4G	4gg\
=:|!	=:|!
*-	*-
!!!system-decoration: [(s1,s2)]
!!!ENC: Solarz Mateusz
!!!END: 2022-07-28
!!!ENC: Julita Ruszuk
!!!END: 2022-08-25
!!!YEC: Copyright 2022 Narodowy Instytut Fryderyka Chopina (https://polishscores.org)
!!!YEM: Licence CC BY 4.0 (https://creativecommons.org/licenses/by/4.0)
